X:1
T:Drops Of Brandy
L:1/8
Q:1/4=180
M:9/8
K:G
|:"G"G G,,3 z3 z3 |"G"G G,,3 z3"D7"D7 D, z z |"G"G G,,3 z3 z3 |"C"C E,2"D7" zD7 D,3 z3 ::
"G"G G,,3 z3 z3 |"G"G G,,3 z3"D7"D7 D, z z |1
"G"G G,,3 z3 z3 |"C"C E,2"D7" zD7 D,3 z3 :|2"G"G G,,3 z3 z3 |"C"C E,2"D7" zD7 D,3 z3 |
